copytrade/img/icons/alert.svg

<svg width="24" height="24" viewBox="0 0 24 24" fill="none" xmlns="http://www.w3.org/2000/svg">
<path d="M3 7C3 4.79086 4.79086 3 7 3H17C19.2091 3 21 4.79086 21 7V17C21 19.2091 19.2091 21 17 21H7C4.79086 21 3 19.2091 3 17V7Z" fill="white"/>
<path d="M12.01 8V12M12.01 16H12" stroke="#DFA54E" stroke-width="2" stroke-linecap="round" stroke-linejoin="round"/>
</svg>

<svg width="24" height="24" fill="none" xmlns="http://www.w3.org/2000/svg"><path d="M3 7a4 4 0 014-4h10a4 4 0 014 4v10a4 4 0 01-4 4H7a4 4 0 01-4-4V7z" fill="#fff"/><path d="M12.01 8v4m0 4H12" stroke="#DFA54E" stroke-width="2" stroke-linecap="round" stroke-linejoin="round"/></svg>
